X:5
T:Aredje d'Ottrez
C:Traditional
O:Wallonie
Z:Bert Van Vreckem <http://flanders.blackmill.net/music/>
M:6/8
L:1/8
N:Intro (AB AB A)3
Q:1/4=132
K:D
P:A
F3 A3|GFE F2D|F2F A2A|GFE E3|F3 A3|GFE F2D|F2F A2A|GFE E3||
P:B
|:AGF AGF|B2B A2A|Bcd ABA|GFE F2 D|AGF AGF|B2B A2A|Bcd ABA|GFE D3:|

